X: 7253
T: Clare Glens, The
R: polka
M: 2/4
K: Gmixolydian
|:B/A/|GF DC|A/B/c d>c|BG FD|F2 FB/A/|
GF DC|A/B/c d>c|BG FD|1 G2G:|2 G2GB/c/||
dg gf|dc d>c|Bc de|f2 dc|
dg gf|dc d>c|BG FD|G2GB/c/|
dg gf|dc d>c|Bc de|f2 e>f|
ge fd/f/|ec d>c|BG FD|G2G||

